Gurmukhi/0A6B.svg

<svg enable-background="new 0 0 336 592" viewBox="0 0 336 592" xmlns="http://www.w3.org/2000/svg"><path d="m238.330002 235.000092c.001724 50.143066.005829 99.786132.002106 149.429168-.000611 8.215729-1.415452 9.107422-8.640046 5.439026-4.453613-2.261352-8.79869-4.755493-13.342605-6.813721-3.394623-1.537658-4.496567-3.844909-4.42363-7.462127.188019-9.325012.085831-18.656647.028976-27.985169-.010742-1.763611.50792-3.650543-.960144-5.646728-5.18724 2.772217-10.271957 5.848114-16.070541 7.361267-21.14447 5.51767-40.230255.617401-57.748825-11.558075-13.960701-9.702789-24.216583-22.643005-32.111458-37.638092-2.19667-4.172211-1.923332-6.772644 1.440849-10.381012 13.713883-14.709473 22.891892-31.461701 21.179009-52.503296-.828888-10.182266-4.22226-19.505188-9.837448-27.933548-2.367943-3.554275-2.395676-5.520935 1.587669-7.835861 7.691696-4.470062 7.58416-4.706543 13.291504 2.051559 11.689484 13.841629 19.706528 29.327896 20.021805 47.83136.260284 15.276627-4.904419 29.056137-13.156265 41.739578-1.812378 2.785706-3.631745 5.66565-5.956803 7.994049-2.906341 2.910584-2.492172 5.203278-.178131 8.18396 17.54628 22.601197 54.391144 25.148163 74.722977 5.180176 2.698318-2.650024 3.876236-5.441925 3.863891-9.243469-.106063-32.650757-.057083-65.302033-.051147-97.953156.00029-1.665603-.072617-3.339859.066483-4.995132.36325-4.321915 2.510543-5.83548 6.311264-4.020737 6.006637 2.867997 11.823822 6.130478 17.760131 9.149384 2.241074 1.139694 2.204651 3.096481 2.2034 5.121902-.004517 7.32956-.002701 14.659134-.003021 22.488694z"/></svg>

<svg version="1.1" id="Layer_1" xmlns="http://www.w3.org/2000/svg" xmlns:xlink="http://www.w3.org/1999/xlink" x="0px" y="0px"
	 width="100%" viewBox="0 0 336 592" enable-background="new 0 0 336 592" xml:space="preserve">
<path fill="#000000" opacity="1.000000" stroke="none" 
	d="
M238.330002,235.000092 
	C238.331726,285.143158 238.335831,334.786224 238.332108,384.429260 
	C238.331497,392.644989 236.916656,393.536682 229.692062,389.868286 
	C225.238449,387.606934 220.893372,385.112793 216.349457,383.054565 
	C212.954834,381.516907 211.852890,379.209656 211.925827,375.592438 
	C212.113846,366.267426 212.011658,356.935791 211.954803,347.607269 
	C211.944061,345.843658 212.462723,343.956726 210.994659,341.960541 
	C205.807419,344.732758 200.722702,347.808655 194.924118,349.321808 
	C173.779648,354.839478 154.693863,349.939209 137.175293,337.763733 
	C123.214592,328.060944 112.958710,315.120728 105.063835,300.125641 
	C102.867165,295.953430 103.140503,293.352997 106.504684,289.744629 
	C120.218567,275.035156 129.396576,258.282928 127.683693,237.241333 
	C126.854805,227.059067 123.461433,217.736145 117.846245,209.307785 
	C115.478302,205.753510 115.450569,203.786850 119.433914,201.471924 
	C127.125610,197.001862 127.018074,196.765381 132.725418,203.523483 
	C144.414902,217.365112 152.431946,232.851379 152.747223,251.354843 
	C153.007507,266.631470 147.842804,280.410980 139.590958,293.094421 
	C137.778580,295.880127 135.959213,298.760071 133.634155,301.088470 
	C130.727814,303.999054 131.141983,306.291748 133.456024,309.272430 
	C151.002304,331.873627 187.847168,334.420593 208.179001,314.452606 
	C210.877319,311.802582 212.055237,309.010681 212.042892,305.209137 
	C211.936829,272.558380 211.985809,239.907104 211.991745,207.255981 
	C211.992035,205.590378 211.919128,203.916122 212.058228,202.260849 
	C212.421478,197.938934 214.568771,196.425369 218.369492,198.240112 
	C224.376129,201.108109 230.193314,204.370590 236.129623,207.389496 
	C238.370697,208.529190 238.334274,210.485977 238.333023,212.511398 
	C238.328506,219.840958 238.330322,227.170532 238.330002,235.000092 
z"/>
</svg>
